X:1
T:Title
%%score { ( 1 3 ) | ( 2 4 ) }
L:1/8
Q:1/4=100
M:4/4
K:Ab
V:1 treble nm="Grand Piano"
V:3 treble 
V:2 bass 
V:4 bass 
V:1
 [CE]>[CE] [CF]>[CG] [CA]2 [Ec]2 | [Fd]>[DF] [FA]>[=EB] [_Ec]4 | [CE]>[CE] [CF]>[CG] [CA]2 [Ec]2 | %3
w: E.~L.~Ozendorff * * * * *|||
 e>e d>c B4 | c>c c>d c2 [EA]2 | [DF]>[DB] [FA]>[DF] [CE]4 | [DF]>[DG] [EA]>[Fd] c>A B>B | %7
w: ||||
 [CA]6 z2 | B4 d4 | [DB]>[CA] [CA]>[DB] [Ec]4 | F4 A4 | [FB]>[FA] [FA]>[DF] [CE]4 | %12
w: |||||
 [CE]>[CE] [CF]>[DG] [EA]2 B2 | c>c c>c [Ad]2 [A=d]2 | %14
w: ||
 [Ae]>[Ae] [Ge]>[EBd] [EAc]>[DEB] [CEA]>[FAB] | [EAc]2 [DEB]2 [CEA]4 |] %16
w: ||
V:2
 [A,,A,]>[A,,A,] [A,,A,]>[A,,A,] [A,,A,]2 [A,,A,]2 | [D,A,]>[D,A,] [D,A,]>[D,A,] [A,,A,]4 | %2
 [A,,A,]>[A,,A,] [A,,A,]>[A,,A,] [A,,A,]2 [A,,A,]2 | [A,CE]>[A,CE] [G,B,E]>[A,E] [E,G,E]4 | %4
 [A,E]>[A,E] [A,E]>[A,F] [A,E]2[K:bass] [C,A,]2 | [D,A,]>[D,A,] [D,A,]>[D,A,] [A,,A,]4 | %6
 [D,A,]>[B,,B,] [C,A,]>[D,A,] [E,A,E]>[E,A,C] [E,G,D]>[E,G,D] | [A,,A,]6 z2 | z4 E4 | %9
 [A,,A,]>[A,,A,] [A,,A,]>[A,,A,] [A,,A,]4 | [D,A,D]>[D,A,] [D,A,]>[D,A,] [D,A,D]2 [D,A,]2 | %11
 [D,A,]>[D,A,] [D,A,]>[D,A,] [A,,A,]4 | [A,,A,]>[A,,A,] [A,,A,]>[A,,A,] [C,A,]2 [E,G,E]2 | %13
 [A,E]>[A,E] [A,E]>[G,A,E] [F,D]2 [F,_C]2 | [E,C]>[E,C] [E,B,]>E, A,>A, A,>E, | E,2 E,2 A,,4 |] %16
V:3
 x8 | x8 | x8 | x8 | x8 | x8 | x8 | x8 | z z/ E/ E>E z2 G,2 | x8 | z z/ D/ D>D z2 F2 | x8 | x8 | %13
 x8 | x8 | x8 |] %16
V:4
 x8 | x8 | x8 | x8 | x6[K:bass] x2 | x8 | x8 | x8 | [E,G,E]>[E,G,] [E,G,]>[E,G,] [E,G,]2 E,2 | x8 | %10
 x8 | x8 | x8 | x8 | x8 | x8 |] %16

